**kern	**silbe	**kern	**silbe	**harmony	**phrase	**leadinstrument	**rhyme	**timestamp	**harte
*ICvox	*	*ICvox	*	*M4/4	*	*	*	*	*M4/4
*VRlead	*	*VRbacking*VRharmonize	*	*	*	*	*	*	*
*Hstimme	*	*Nstimme	*	*	*	*	*	*	*
*F:	*	*F:	*	*F:	*	*	*	*	*F:
*M4/4	*	*M4/4	*	*	*	*	*	*	*
*clefC3	*	*clefG2	*	*	*	*	*	*	*
r;	.	r;	.	1r;	.	r	.	0	N.C.
=1	=1	=1	=1	=1	=1	=1	=1	=1	=1
*>Letter>A	*>Letter>A	*>Letter>A	*>Letter>A	*>Letter>A	*>Letter>A	*>Letter>A	*>Letter>A	*>Letter>A	*>Letter>A
*>Label>Intro	*>Label>Intro	*>Label>Intro	*>Label>Intro	*>Label>Intro	*>Label>Intro	*>Label>Intro	*>Label>Intro	*>Label>Intro	*>Label>Intro
1r	.	1r	.	1FM	newline	horns	.	0.592	F:maj
=2	=2	=2	=2	=2	=2	=2	=2	=2	=2
1r	.	1r	.	1B-M	.	horns	.	3.087	B-:maj
=3	=3	=3	=3	=3	=3	=3	=3	=3	=3
1r	.	1r	.	1Gm	.	horns	.	5.581	G:min
=4	=4	=4	=4	=4	=4	=4	=4	=4	=4
1r	.	1r	.	1AMm	.	horns	.	8.076	A:7
=5	=5	=5	=5	=5	=5	=5	=5	=5	=5
*>Letter>B	*>Letter>B	*>Letter>B	*>Letter>B	*>Letter>B	*>Letter>B	*>Letter>B	*>Letter>B	*>Letter>B	*>Letter>B
*>Label>Verse	*>Label>Verse	*>Label>Verse	*>Label>Verse	*>Label>Verse	*>Label>Verse	*>Label>Verse	*>Label>Verse	*>Label>Verse	*>Label>Verse
4.f	I	1r	.	1FM	newline	voice	.	10.571	F:maj
[8e	had	.	.	.	.	.	.	.	.
4e]	_	.	.	.	.	.	.	.	.
8f	a	.	.	.	.	.	.	.	.
8c#q	_	.	.	.	.	.	.	.	.
8d	dream	.	.	.	.	.	.	.	.
=6	=6	=6	=6	=6	=6	=6	=6	=6	=6
8c#q	_	.	.	.	.	.	.	.	.
8d	_	1r	.	1B-M	.	voice	.	13.054	B-:maj/5
8c#q	_	.	.	.	.	.	.	.	.
4.d	_	.	.	.	.	.	.	.	.
2r	.	.	.	.	.	.	.	.	.
=7	=7	=7	=7	=7	=7	=7	=7	=7	=7
16c	thin-	1r	.	1Am	.	voice	.	15.538	A:min
16c	-king	.	.	.	.	.	.	.	.
16c	that	.	.	.	.	.	.	.	.
16c	a'-	.	.	.	.	.	.	.	.
8c	-you	.	.	.	.	.	.	.	.
16A	were	.	.	.	.	.	.	.	.
[16c	gone.	.	.	.	.	.	A	.	.
4c]	_	.	.	.	.	.	.	.	.
4r	.	.	.	.	.	.	.	.	.
=8	=8	=8	=8	=8	=8	=8	=8	=8	=8
16c	lea-	1r	.	1Am	.	voice	.	18.022	A:min
16c	-ving	.	.	.	.	.	.	.	.
8c	me	.	.	.	.	.	.	.	.
8c	on	.	.	.	.	.	.	.	.
16d	my	.	.	.	.	.	.	.	.
16d	own,	.	.	.	.	.	A	.	.
4e	_	.	.	.	.	.	.	.	.
8c	and	.	.	.	.	.	.	.	.
8c#q	_	.	.	.	.	.	.	.	.
8d	you	.	.	.	.	.	.	.	.
=9	=9	=9	=9	=9	=9	=9	=9	=9	=9
8c#q	_	.	.	.	.	.	.	.	.
8d	_	1r	.	1B-M	.	voice	.	20.505	B-:maj
8c#q	_	.	.	.	.	.	.	.	.
8d	_	.	.	.	.	.	.	.	.
8c#q	_	.	.	.	.	.	.	.	.
4d	_	.	.	.	.	.	.	.	.
8r	.	.	.	.	.	.	.	.	.
8d	you	.	.	.	.	.	.	.	.
8c	was	.	.	.	.	.	.	.	.
[8B-	there	.	.	.	.	.	.	.	.
=10	=10	=10	=10	=10	=10	=10	=10	=10	=10
4B-]	_	1r	.	1Gm	.	voice	.	22.989	G:min
4r	.	.	.	.	.	.	.	.	.
2r	.	.	.	.	.	.	.	.	.
=11	=11	=11	=11	=11	=11	=11	=11	=11	=11
8c#	in	1r	.	1AMm	.	voice	.	25.472	A:7
8c#	some	.	.	.	.	.	.	.	.
8c#	o-	.	.	.	.	.	.	.	.
16e	-ther's	.	.	.	.	.	.	.	.
8Bq	_	.	.	.	.	.	.	.	.
16c#	arms	.	.	.	.	.	B	.	.
8Bq	_	.	.	.	.	.	.	.	.
4c#	_	.	.	.	.	.	.	.	.
4r	.	.	.	.	.	.	.	.	.
=12	=12	=12	=12	=12	=12	=12	=12	=12	=12
24c#	gi-	1r	.	1AMm	.	voice	.	27.956	A:7
24c#	-ving	.	.	.	.	.	.	.	.
24c#	a-	.	.	.	.	.	.	.	.
8c#	-way	.	.	.	.	.	.	.	.
8c#	all	.	.	.	.	.	.	.	.
16d	my	.	.	.	.	.	.	.	.
8dq	_	.	.	.	.	.	.	.	.
[16e	charms,	.	.	.	.	.	B	.	.
8e]	_	.	.	.	.	.	.	.	.
8r	.	.	.	.	.	.	.	.	.
8c	and	.	.	.	.	.	.	.	.
8r	.	.	.	.	.	.	.	.	.
=13	=13	=13	=13	=13	=13	=13	=13	=13	=13
4.f	when	1r	.	1FM	newline	voice	.	30.439	F:maj
8e	I	.	.	.	.	.	.	.	.
8dq	_	.	.	.	.	.	.	.	.
4e	a-	.	.	.	.	.	.	.	.
8f	-wake	.	.	.	.	.	.	.	.
8c#q	_	.	.	.	.	.	.	.	.
8d	_	.	.	.	.	.	.	.	.
=14	=14	=14	=14	=14	=14	=14	=14	=14	=14
8c#q	_	.	.	.	.	.	.	.	.
8d	_	1r	.	1B-M	.	voice	.	32.929	B-:maj/5
8c#q	_	.	.	.	.	.	.	.	.
[8d	_	.	.	.	.	.	.	.	.
4d]	_	.	.	.	.	.	.	.	.
2r	.	.	.	.	.	.	.	.	.
=15	=15	=15	=15	=15	=15	=15	=15	=15	=15
4c	I	1r	.	1Am	.	voice	.	35.419	A:min
8c	want	.	.	.	.	.	.	.	.
16A	to	.	.	.	.	.	.	.	.
16cQ	_	.	.	.	.	.	.	.	.
[16d	hear	.	.	.	.	.	C	.	.
16d]	_	.	.	.	.	.	.	.	.
16c	you	.	.	.	.	.	.	.	.
8A	_	.	.	.	.	.	.	.	.
4r	.	.	.	.	.	.	.	.	.
=16	=16	=16	=16	=16	=16	=16	=16	=16	=16
16c	fil-	1r	.	1Am	.	voice	.	37.909	A:min
16c	-ling	.	.	.	.	.	.	.	.
8c	my	.	.	.	.	.	.	.	.
8c	life	.	.	.	.	.	.	.	.
16d	with	.	.	.	.	.	.	.	.
[16e	cheer,	.	.	.	.	.	C	.	.
8e]	_	.	.	.	.	.	.	.	.
8r	.	.	.	.	.	.	.	.	.
8c	and	.	.	.	.	.	.	.	.
8c#q	_	.	.	.	.	.	.	.	.
8d	when	.	.	.	.	.	.	.	.
=17	=17	=17	=17	=17	=17	=17	=17	=17	=17
8c#q	_	.	.	.	.	.	.	.	.
8d	_	1r	.	1B-M	.	voice	.	40.399	B-:maj
8c#q	_	.	.	.	.	.	.	.	.
[8d	_	.	.	.	.	.	.	.	.
4d]	_	.	.	.	.	.	.	.	.
8r	.	.	.	.	.	.	.	.	.
8d	I	.	.	.	.	.	.	.	.
8c	come	.	.	.	.	.	.	.	.
16d	back	.	.	.	.	.	.	.	.
16c	_	.	.	.	.	.	.	.	.
=18	=18	=18	=18	=18	=18	=18	=18	=18	=18
4B-	_	1r	.	1Gm	.	voice	.	42.889	G:min
4r	.	.	.	.	.	.	.	.	.
2r	.	.	.	.	.	.	.	.	.
=19	=19	=19	=19	=19	=19	=19	=19	=19	=19
8Bq	_	.	.	.	.	.	.	.	.
8c#	you	1r	.	1AMm	.	voice	.	45.379	A:7
8Bq	_	.	.	.	.	.	.	.	.
8c#	won't	.	.	.	.	.	.	.	.
8Bq	_	.	.	.	.	.	.	.	.
8c#	be	.	.	.	.	.	.	.	.
16B	a-	.	.	.	.	.	.	.	.
[16c#	-lone,	.	.	.	.	.	D	.	.
4c#]	_	.	.	.	.	.	.	.	.
8.r	.	.	.	.	.	.	.	.	.
16~E	cuz	.	.	.	.	.	.	.	.
=20	=20	=20	=20	=20	=20	=20	=20	=20	=20
4c#	I'll	1r	.	1AMm	.	voice	.	47.868	A:7
16c#	be	.	.	.	.	.	.	.	.
8d	at	.	.	.	.	.	.	.	.
[16e	home,	.	.	.	.	.	D	.	.
4e]	_	.	.	.	.	.	.	.	.
8eq	_	.	.	.	.	.	.	.	.
4f	say!	.	.	.	.	.	.	.	.
=21	=21	=21	=21	=21	=21	=21	=21	=21	=21
*>Letter>C	*>Letter>C	*>Letter>C	*>Letter>C	*>Letter>C	*>Letter>C	*>Letter>C	*>Letter>C	*>Letter>C	*>Letter>C
*>Label>Chorus	*>Label>Chorus	*>Label>Chorus	*>Label>Chorus	*>Label>Chorus	*>Label>Chorus	*>Label>Chorus	*>Label>Chorus	*>Label>Chorus	*>Label>Chorus
4r	.	1r	.	1FM	newline	voice	.	50.358	F:maj
8g#q	_	.	.	.	.	.	.	.	.
8a	Oh	.	.	.	.	.	.	.	.
8g#q	_	.	.	.	.	.	.	.	.
[8a	me,	.	.	.	.	.	.	.	.
4a]	_	.	.	.	.	.	.	.	.
8g	oh	.	.	.	.	.	.	.	.
8e#q	_	.	.	.	.	.	.	.	.
8f#	my!	.	.	.	.	.	.	.	.
=22	=22	=22	=22	=22	=22	=22	=22	=22	=22
8e#q	_	.	.	.	.	.	.	.	.
8f#	_	1r	.	1DMm	.	voice	.	52.833	D:7
8e#q	_	.	.	.	.	.	.	.	.
[8f#	_	.	.	.	.	.	.	.	.
4f#]	_	.	.	.	.	.	.	.	.
2r	.	.	.	.	.	.	.	.	.
=23	=23	=23	=23	=23	=23	=23	=23	=23	=23
4f	Dreams	1r	.	1B-M	.	voice	.	55.308	B-:maj
8f	in	.	.	.	.	.	.	.	.
16d	my	.	.	.	.	.	.	.	.
[16f	arms.	.	.	.	.	.	E	.	.
4f]	_	.	.	.	.	.	.	.	.
4r	.	.	.	.	.	.	.	.	.
=24	=24	=24	=24	=24	=24	=24	=24	=24	=24
4f	glad	1r	.	1E-Mm	.	voice	.	57.782	E-:9
16f	you	.	.	.	.	.	.	.	.
8d	at	.	.	.	.	.	.	.	.
[16f	home	.	.	.	.	.	E	.	.
4f]	_	.	.	.	.	.	.	.	.
8fq	_	.	.	.	.	.	.	.	.
8g	with	.	.	.	.	.	.	.	.
8d#q	_	.	.	.	.	.	.	.	.
8e	me	.	.	.	.	.	.	.	.
=25	=25	=25	=25	=25	=25	=25	=25	=25	=25
8d#q	_	.	.	.	.	.	.	.	.
8e	_	1r	.	1EMm	.	voice	.	60.257	E:7
8d#q	_	.	.	.	.	.	.	.	.
[8e	_	.	.	.	.	.	.	.	.
4e_	_	.	.	.	.	.	.	.	.
4e]	_	.	.	.	.	.	.	.	.
4r	.	.	.	.	.	.	.	.	.
=26	=26	=26	=26	=26	=26	=26	=26	=26	=26
2r	.	1r	.	1EMm	.	voice	.	62.732	E:7
8r	.	.	.	.	.	.	.	.	.
8~E	I'm	.	.	.	.	.	.	.	.
16d-	so	.	.	.	.	.	.	.	.
16c-	_	.	.	.	.	.	.	.	.
8d-	glad	.	.	.	.	.	.	.	.
=27	=27	=27	=27	=27	=27	=27	=27	=27	=27
16c-	_	1r	.	1A-m	.	voice	.	65.206	A-:min
16A-	_	.	.	.	.	.	.	.	.
8G-q	_	.	.	.	.	.	.	.	.
[8A-	_	.	.	.	.	.	.	.	.
4A-]	_	.	.	.	.	.	.	.	.
4r	.	.	.	.	.	.	.	.	.
16r	.	.	.	.	.	.	.	.	.
16c-	It	.	.	.	.	.	.	.	.
16d-	was	.	.	.	.	.	.	.	.
[16f-	on	.	.	.	.	.	.	.	.
=28	=28	=28	=28	=28	=28	=28	=28	=28	=28
4f-]	_	1r	.	1D-Mm	.	voice	.	67.681	D-:7
16d-	ly	.	.	.	.	.	.	.	.
16c-	a	.	.	.	.	.	.	.	.
8d-	dream	.	.	.	.	.	.	.	.
4r	.	.	.	.	.	.	.	.	.
8r	.	.	.	.	.	.	.	.	.
[8ff	Ha	.	.	.	.	.	.	.	.
=29	=29	=29	=29	=29	=29	=29	=29	=29	=29
1ff_	_	1r	.	1CMm	.	voice	.	70.156	C:7(11)
=30	=30	=30	=30	=30	=30	=30	=30	=30	=30
2ff]	_	1r	.	1CMm	.	voice	.	72.63	C:7(11)
8r	.	.	.	.	.	.	.	.	.
16~c	(vocalizing)	.	.	.	.	.	.	.	.
16d	_	.	.	.	.	.	.	.	.
4f	say!	.	.	.	.	.	.	.	.
=31	=31	=31	=31	=31	=31	=31	=31	=31	=31
*>Letter>D	*>Letter>D	*>Letter>D	*>Letter>D	*>Letter>D	*>Letter>D	*>Letter>D	*>Letter>D	*>Letter>D	*>Letter>D
*>Label>Instrumental	*>Label>Instrumental	*>Label>Instrumental	*>Label>Instrumental	*>Label>Instrumental	*>Label>Instrumental	*>Label>Instrumental	*>Label>Instrumental	*>Label>Instrumental	*>Label>Instrumental
1r	.	1r	.	1FM	newline	horns	.	75.105	F:maj
=32	=32	=32	=32	=32	=32	=32	=32	=32	=32
1r	.	1r	.	1Gm	.	horns	.	77.576	G:min
=33	=33	=33	=33	=33	=33	=33	=33	=33	=33
1r	.	1r	.	1Am	.	horns	.	80.046	A:min
=34	=34	=34	=34	=34	=34	=34	=34	=34	=34
1r	.	1r	.	1B-M	.	horns	.	82.517	B-:maj
=35	=35	=35	=35	=35	=35	=35	=35	=35	=35
1r	.	4r	.	1Am	.	horns	.	84.988	A:min
.	.	4c 4cc	Ooh!	.	.	.	.	.	.
.	.	4cc 4ccc	_	.	.	.	.	.	.
.	.	4a 4aa	_	.	.	.	.	.	.
=36	=36	=36	=36	=36	=36	=36	=36	=36	=36
1r	.	1a- 1aa-	_	1A-d	.	horns	.	87.459	A-:dim
=37	=37	=37	=37	=37	=37	=37	=37	=37	=37
1r	.	1r	.	1Gm	.	horns	.	89.929	G:min
=38	=38	=38	=38	=38	=38	=38	=38	=38	=38
1r	.	1r	.	1CMm	.	horns	.	92.4	C:7
=39	=39	=39	=39	=39	=39	=39	=39	=39	=39
*>Letter>C	*>Letter>C	*>Letter>C	*>Letter>C	*>Letter>C	*>Letter>C	*>Letter>C	*>Letter>C	*>Letter>C	*>Letter>C
*>Label>Chorus	*>Label>Chorus	*>Label>Chorus	*>Label>Chorus	*>Label>Chorus	*>Label>Chorus	*>Label>Chorus	*>Label>Chorus	*>Label>Chorus	*>Label>Chorus
4r	.	4r	.	1FM	newline	voice	.	94.871	F:maj
8g#q	_	8B-q 8eq 8gq	_	.	.	.	.	.	.
8a	Oh	8c 8f 8a	Oh	.	.	.	.	.	.
8g#q	_	8B-q 8eq 8gq	_	.	.	.	.	.	.
[8a	me,	[8c [8f [8a	me,	.	.	.	.	.	.
4a]	_	4c] 4f] 4a]	_	.	.	.	.	.	.
8g	oh	8c# 8e 8g	oh	.	.	.	.	.	.
8e#q	_	8e#q	_	.	.	.	.	.	.
8f#	my!	8d 8f# 8a	my!	.	.	.	.	.	.
=40	=40	=40	=40	=40	=40	=40	=40	=40	=40
8e#q	_	8cq 8eq 8gq	_	.	.	.	.	.	.
4f#	_	2d 2f# 2a	_	1DMm	.	voice	.	97.345	D:7
[4d	_	.	.	.	.	.	.	.	.
4d]	_	2r	.	.	.	.	.	.	.
4r	.	.	.	.	.	.	.	.	.
=41	=41	=41	=41	=41	=41	=41	=41	=41	=41
4f	Dreams	1r	.	1B-M	.	voice	.	99.819	B-:maj
8f	in	.	.	.	.	.	.	.	.
16d	my	.	.	.	.	.	.	.	.
[16f	arms.	.	.	.	.	.	F	.	.
4f]	_	.	.	.	.	.	.	.	.
4r	.	.	.	.	.	.	.	.	.
=42	=42	=42	=42	=42	=42	=42	=42	=42	=42
8f	All	1r	.	1E-Mm	.	voice	.	102.293	E-:9
8f	I	.	.	.	.	.	.	.	.
8f	have	.	.	.	.	.	.	.	.
16d	to	.	.	.	.	.	.	.	.
[16f	hold	.	.	.	.	.	.	.	.
16f]	_	.	.	.	.	.	.	.	.
8f	since	.	.	.	.	.	.	.	.
8fq	_	.	.	.	.	.	.	.	.
[16g	you've	.	.	.	.	.	.	.	.
16g]	_	.	.	.	.	.	.	.	.
8.f	been	.	.	.	.	.	.	.	.
=43	=43	=43	=43	=43	=43	=43	=43	=43	=43
8dq	_	.	.	.	.	.	.	.	.
8e	gone.	1r	.	1EMm	.	voice	F	104.767	E:7
8dq	_	.	.	.	.	.	.	.	.
[8e	_	.	.	.	.	.	.	.	.
4e]	_	.	.	.	.	.	.	.	.
4r	.	.	.	.	.	.	.	.	.
8r	.	.	.	.	.	.	.	.	.
8~E	I	.	.	.	.	.	.	.	.
=44	=44	=44	=44	=44	=44	=44	=44	=44	=44
12d	got	1r	.	1EMm	.	voice	.	107.241	E:7
12d	through.	.	.	.	.	.	G	.	.
12B	_	.	.	.	.	.	.	.	.
8A-	_	.	.	.	.	.	.	.	.
8r	.	.	.	.	.	.	.	.	.
4r	.	.	.	.	.	.	.	.	.
16r	.	.	.	.	.	.	.	.	.
16c-	May-	.	.	.	.	.	.	.	.
16d-	-be	.	.	.	.	.	.	.	.
[16f-	I	.	.	.	.	.	.	.	.
=45	=45	=45	=45	=45	=45	=45	=45	=45	=45
4f-]	_	1r	.	1A-mm	.	voice	.	109.715	A-:min7
16d-	can	.	.	.	.	.	.	.	.
16c-	_	.	.	.	.	.	.	.	.
8d-	be	.	.	.	.	.	.	.	.
4r	.	.	.	.	.	.	.	.	.
8r	.	.	.	.	.	.	.	.	.
16~E	some	.	.	.	.	.	.	.	.
[16d	help	.	.	.	.	.	.	.	.
=46	=46	=46	=46	=46	=46	=46	=46	=46	=46
16d]	_	1r	.	1D-Mm	.	voice	.	112.19	D-:7
16d-	to	.	.	.	.	.	.	.	.
16c-	_	.	.	.	.	.	.	.	.
16c-	you.	.	.	.	.	.	G	.	.
4r	.	.	.	.	.	.	.	.	.
4r	.	.	.	.	.	.	.	.	.
8r	.	.	.	.	.	.	.	.	.
[8ff	Hey	.	.	.	.	.	.	.	.
=47	=47	=47	=47	=47	=47	=47	=47	=47	=47
4.ff]	_	1r	.	1CMm	.	voice	.	114.664	C:7(11)
16dd	_	.	.	.	.	.	.	.	.
16cc	_	.	.	.	.	.	.	.	.
8dd	_	.	.	.	.	.	.	.	.
8r	.	.	.	.	.	.	.	.	.
8.r	.	.	.	.	.	.	.	.	.
[16e-	Help	.	.	.	.	.	.	.	.
=48	=48	=48	=48	=48	=48	=48	=48	=48	=48
16e-]	_	1r	.	1CMm	.	voice	.	117.138	C:7(11)
8.d	me	.	.	.	.	.	.	.	.
16d	to	.	.	.	.	.	G	.	.
16r	.	.	.	.	.	.	.	.	.
8d	a-	.	.	.	.	.	.	.	.
8f	-help	.	.	.	.	.	.	.	.
8d	me	.	.	.	.	.	.	.	.
4f	say!	.	.	.	.	.	.	.	.
=49	=49	=49	=49	=49	=49	=49	=49	=49	=49
*>Letter>C2	*>Letter>C2	*>Letter>C2	*>Letter>C2	*>Letter>C2	*>Letter>C2	*>Letter>C2	*>Letter>C2	*>Letter>C2	*>Letter>C2
*>Label>Outro	*>Label>Outro	*>Label>Outro	*>Label>Outro	*>Label>Outro	*>Label>Outro	*>Label>Outro	*>Label>Outro	*>Label>Outro	*>Label>Outro
4r	.	4r	.	1FM	newline	horns	.	119.612	F:maj
8g#q	_	8B-q 8eq 8gq	_	.	.	.	.	.	.
8a	Oh	8c 8f 8a	Oh	.	.	.	.	.	.
8g#q	_	8B-q 8eq 8gq	_	.	.	.	.	.	.
[8a	me,	[8c [8f [8a	me,	.	.	.	.	.	.
4a]	_	4c] 4f] 4a]	_	.	.	.	.	.	.
8g	oh	8c# 8e 8g	oh	.	.	.	.	.	.
8e#q	_	8e#q	_	.	.	.	.	.	.
8f#	my	8d 8f# 8a	my	.	.	.	.	.	.
=50	=50	=50	=50	=50	=50	=50	=50	=50	=50
8e#q	_	8cq 8eq 8gq	_	.	.	.	.	.	.
8f#	_	2.d 2.f# 2.a	_	1DMm	.	horns	.	122.09	D:7
[8d	_	.	.	.	.	.	.	.	.
4d]	_	.	.	.	.	.	.	.	.
2r	.	.	.	.	.	.	.	.	.
.	.	4r	.	.	.	.	.	.	.
=51	=51	=51	=51	=51	=51	=51	=51	=51	=51
4f	Dreams	1r	.	1B-M	.	horns	.	124.567	B-:maj
8f	in	.	.	.	.	.	.	.	.
16d	my	.	.	.	.	.	.	.	.
[16f	arms	.	.	.	.	.	H	.	.
4f]	_	.	.	.	.	.	.	.	.
8r	.	.	.	.	.	.	.	.	.
16c	E-	.	.	.	.	.	.	.	.
16d	-ver	.	.	.	.	.	.	.	.
=52	=52	=52	=52	=52	=52	=52	=52	=52	=52
4f	since	1r	.	1E-Mm	.	horns	.	127.045	E-:9
16f	you	.	.	.	.	.	.	.	.
8d	been	.	.	.	.	.	.	.	.
[16f	gone	.	.	.	.	.	H	.	.
16f]	_	.	.	.	.	.	.	.	.
8f	is	.	.	.	.	.	.	.	.
8gq	_	.	.	.	.	.	.	.	.
[16a	all	.	.	.	.	.	.	.	.
16a]	_	.	.	.	.	.	.	.	.
8.g	I.	.	.	.	.	.	.	.	.
=53	=53	=53	=53	=53	=53	=53	=53	=53	=53
4r	.	1r	.	1EMm	.	horns	.	129.523	E:7
8.r	.	.	.	.	.	.	.	.	.
16~E	I'm	.	.	.	.	.	.	.	.
16e-	glad	.	.	.	.	.	.	.	.
8d	it's	.	.	.	.	.	.	.	.
[16d	on	.	.	.	.	.	.	.	.
16d]	_	.	.	.	.	.	.	.	.
16c	ly	.	.	.	.	.	.	.	.
16c	a	.	.	.	.	.	.	.	.
[16d	dream.	.	.	.	.	.	I	.	.
=54	=54	=54	=54	=54	=54	=54	=54	=54	=54
16d]	_	1r	.	1EMm	.	horns	.	132.001	E:7
16c	_	.	.	.	.	.	.	.	.
8A	_	.	.	.	.	.	.	.	.
8r	.	.	.	.	.	.	.	.	.
16c	Lem-	.	.	.	.	.	.	.	.
16d	-me	.	.	.	.	.	.	.	.
8f	say	.	.	.	.	.	.	.	.
8d	one	.	.	.	.	.	.	.	.
4f	thing!	.	.	.	.	.	I	.	.
=55	=55	=55	=55	=55	=55	=55	=55	=55	=55
4cc	Hey	4r	.	1FM	newline	horns	.	134.478	F:maj
.	.	8B-q 8eq 8gq	_	.	.	.	.	.	.
8r	.	8c 8f 8a	Oh	.	.	.	.	.	.
.	.	8B-q 8eq 8gq	_	.	.	.	.	.	.
8g	Oh	[8c [8f [8a	me,	.	.	.	.	.	.
8a	me	4c] 4f] 4a]	_	.	.	.	.	.	.
8r	.	.	.	.	.	.	.	.	.
8g	oh	8c# 8e 8g	oh	.	.	.	.	.	.
8e#q	_	8e#q	_	.	.	.	.	.	.
8f#	my!	8d 8f# 8a	my	.	.	.	.	.	.
=56	=56	=56	=56	=56	=56	=56	=56	=56	=56
8e#q	_	8cq 8eq 8gq	_	.	.	.	.	.	.
4f#	_	[2d [2f# [2a	_	1DMm	.	horns	.	136.959	D:7
[4d	_	.	.	.	.	.	.	.	.
8d]	_	8d] 8f#] 8a]	_	.	.	.	.	.	.
4.r	.	8r	.	.	.	.	.	.	.
.	.	4r	.	.	.	.	.	.	.
=57	=57	=57	=57	=57	=57	=57	=57	=57	=57
4f	Dreams	1r	.	1B-M	.	horns	.	139.44	B-:maj
8f	in	.	.	.	.	.	.	.	.
16d	my	.	.	.	.	.	.	.	.
[16f	arms	.	.	.	.	.	J	.	.
4f]	_	.	.	.	.	.	.	.	.
8.r	.	.	.	.	.	.	.	.	.
16~F	is	.	.	.	.	.	.	.	.
=58	=58	=58	=58	=58	=58	=58	=58	=58	=58
8f	all	1r	.	1E-Mm	.	horns	.	141.92	E-:9
8f	I	.	.	.	.	.	.	.	.
8f	have	.	.	.	.	.	.	.	.
16d	to	.	.	.	.	.	.	.	.
[16f	hold	.	.	.	.	.	.	.	.
16f]	_	.	.	.	.	.	.	.	.
8f	since	.	.	.	.	.	.	.	.
8fq	_	.	.	.	.	.	.	.	.
[16g	you've	.	.	.	.	.	.	.	.
16g]	_	.	.	.	.	.	.	.	.
8.f	been	.	.	.	.	.	.	.	.
=59	=59	=59	=59	=59	=59	=59	=59	=59	=59
8dq	_	.	.	.	.	.	.	.	.
8e	gone.	1r	.	1EMm	.	horns	J	144.401	E:7
8~d	_	.	.	.	.	.	.	.	.
4r	.	.	.	.	.	.	.	.	.
16e	Come	.	.	.	.	.	.	.	.
8d	on	.	.	.	.	.	.	.	.
[16d	back	.	.	.	.	.	.	.	.
16d]	_	.	.	.	.	.	.	.	.
8.d	home.	.	.	.	.	.	J	.	.
=60	=60	=60	=60	=60	=60	=60	=60	=60	=60
16r	.	1r	.	1CMm	.	horns	.	146.882	C:7
8a-	Some-	.	.	.	.	.	.	.	.
[16b-	-time	.	.	.	.	.	.	.	.
16b-]	_	.	.	.	.	.	.	.	.
8a-	I	.	.	.	.	.	.	.	.
8b-q	_	.	.	.	.	.	.	.	.
[16cc-	dream	.	.	.	.	.	.	.	.
16cc-]	_	.	.	.	.	.	.	.	.
16b-	a-	.	.	.	.	.	.	.	.
8a-	-bout	.	.	.	.	.	.	.	.
16f	you,	.	.	.	.	.	.	.	.
8f	ba-	.	.	.	.	.	.	.	.
16f	-by!	.	.	.	.	.	.	.	.
=61	=61	=61	=61	=61	=61	=61	=61	=61	=61
4r	.	4r	.	1FM	newline	horns voice fadeout	.	149.362	F:maj
8g#q	_	8B-q 8eq 8gq	_	.	.	.	.	.	.
8a	Oh	8c 8f 8a	Oh	.	.	.	.	.	.
8g#q	_	8B-q 8eq 8gq	_	.	.	.	.	.	.
[8a	me,	[8c [8f [8a	me,	.	.	.	.	.	.
4a]	_	4c] 4f] 4a]	_	.	.	.	.	.	.
8cc	oh	8c# 8e 8g	oh	.	.	.	.	.	.
8ccq	_	8e#q	_	.	.	.	.	.	.
[8dd	my	8d 8f# 8a	my	.	.	.	.	.	.
=62	=62	=62	=62	=62	=62	=62	=62	=62	=62
.	.	8cq 8eq 8gq	_	.	.	.	.	.	.
4.dd]	_	2.d 2.f# 2.a	_	1DMm	.	horns voice fadeout	.	151.629	D:7
[8a	_	.	.	.	.	.	.	.	.
4a]	_	.	.	.	.	.	.	.	.
4r	.	4r	.	.	.	.	.	.	.
=63	=63	=63	=63	=63	=63	=63	=63	=63	=63
4f	Dreams	1r	.	1B-M	.	horns voice fadeout	.	153.895	B-:maj
8f	in	.	.	.	.	.	.	.	.
16d	my	.	.	.	.	.	.	.	.
[16f	arms	.	.	.	.	.	K	.	.
4f]	_	.	.	.	.	.	.	.	.
8r	.	.	.	.	.	.	.	.	.
[8gg	E	.	.	.	.	.	.	.	.
=64	=64	=64	=64	=64	=64	=64	=64	=64	=64
12gg]	_	1r	.	1E-Mm	.	horns voice fadeout	.	156.161	E-:9
12ff	ver	.	.	.	.	.	.	.	.
12ff	since	.	.	.	.	.	.	.	.
12dd	you	.	.	.	.	.	.	.	.
12cc	been	.	.	.	.	.	.	.	.
[12ff	gone.	.	.	.	.	.	K	.	.
8ff]	_	.	.	.	.	.	.	.	.
8r	.	.	.	.	.	.	.	.	.
8fq	_	.	.	.	.	.	.	.	.
8g	For	.	.	.	.	.	.	.	.
8dq	_	.	.	.	.	.	.	.	.
8e	me.	.	.	.	.	.	.	.	.
=65	=65	=65	=65	=65	=65	=65	=65	=65	=65
8dq	_	.	.	.	.	.	.	.	.
8e	_	1r	.	1EMm	.	horns voice fadeout	.	158.427	E:7
8r	.	.	.	.	.	.	.	.	.
4r	.	.	.	.	.	.	.	.	.
16e-	All	.	.	.	.	.	.	.	.
8d	I	.	.	.	.	.	.	.	.
[16d	have	.	.	.	.	.	.	.	.
16d]	_	.	.	.	.	.	.	.	.
8c	to	.	.	.	.	.	.	.	.
[16c	do	.	.	.	.	.	.	.	.
=66	=66	=66	=66	=66	=66	=66	=66	=66	=66
16c]	_	1r	.	1CMm	.	horns voice fadeout	.	160.694	C:7
8d	is	.	.	.	.	.	.	.	.
[16f	dream	.	.	.	.	.	.	.	.
16f]	_	.	.	.	.	.	.	.	.
8d	a-	.	.	.	.	.	.	.	.
[16f	-bout	.	.	.	.	.	.	.	.
16f]	_	.	.	.	.	.	.	.	.
16d	you.	.	.	.	.	.	.	.	.
16r	.	.	.	.	.	.	.	.	.
8gq	_	.	.	.	.	.	.	.	.
4a	hey!	.	.	.	.	.	.	.	.
16r	.	.	.	.	.	.	.	.	.
r;	.	r;	.	1r;	.	r	.	162.96	N.C.
r;	.	r;	.	1r;	.	r	.	166.643	N.C.
*-	*-	*-	*-	*-	*-	*-	*-	*-	*-
!!!BillboardChartDate: 1975/07/19
!!!BillboardPeak: 48
!!!BillboardWeeksOnChart: 6
!!!COC: Al Green
!!!ENC: Nathaniel Condit-Schultz
!!!EST: Awating manual error checking and editing.
!!!OTL: Oh Me, Oh My (Dreams In My Arms)
!!!RDF**chordsym: original McGill chord annotation + (implied pitch class set, with bass pitch in first position)
!!!RDF**harmony: **recip + pitch class of root + harmonic quality
!!!RDF**leadinstrument: original McGill primary instrumentation annotation
!!!RDF**phrase: newline = linebreak in original McGill transcription
!!!RDF**timestamp: McGill audio timestamp in seconds
!!!RDT: 2017/01/12/
!!!SampleActualRank: 59
!!!SampleID#: 0573
!!!SampleTargetRank: 59
